icon-themes/sifr_svg/cmd/lc_insertauthorfield.svg

<svg viewBox="0 0 24 24" xmlns="http://www.w3.org/2000/svg"><path d="m3 2v21h17v-12l-.212891-.025391-1.787109 1.667969v8.357422h-13v-1-3.373047-12.626953h8v3.3964844l2.970703-3.4257813-1.970703-1.9707031zm16 0-13 15v2h1l4-4h4l1-2h-4l1-1h4.222656l1.666016-1.554688 2.111328-8.445312zm-5 14v1h-1v1h-2-1.5859375l-.4140625.414062v.585938h2v1h1v-1h2v-1h3v-1h-2v-1z" fill="#555753"/></svg>

<svg xmlns="http://www.w3.org/2000/svg" viewBox="0 0 24 24">
  <path
     style="fill:#555753"
     d="M 3 2 L 3 23 L 20 23 L 20 11 L 19.787109 10.974609 L 18 12.642578 L 18 21 L 5 21 L 5 20 L 5 16.626953 L 5 4 L 13 4 L 13 7.3964844 L 15.970703 3.9707031 L 14 2 L 3 2 z M 19 2 L 6 17 L 6 19 L 7 19 L 11 15 L 15 15 L 16 13 L 12 13 L 13 12 L 17.222656 12 L 18.888672 10.445312 L 21 2 L 19 2 z M 14 16 L 14 17 L 13 17 L 13 18 L 11 18 L 9.4140625 18 L 9 18.414062 L 9 19 L 11 19 L 11 20 L 12 20 L 12 19 L 14 19 L 14 18 L 17 18 L 17 17 L 15 17 L 15 16 L 14 16 z "
     />
</svg>
